tipitek/img/advantage-icon-2.svg

<svg width="56" height="56" viewBox="0 0 56 56" fill="none" xmlns="http://www.w3.org/2000/svg">
<g clip-path="url(#clip0_596_5172)">
<path d="M34.7057 44.8571L33.5679 43.5314H22.4957L21.2959 44.8571L19.0908 47.4143H36.9108L34.7057 44.8571Z" fill="#EFEDEF"/>
<path d="M28.4143 43.5314H22.4957L21.2959 44.8571L19.0908 47.4143H25.0095L27.2145 44.8571L28.4143 43.5314Z" fill="#E5E1E5"/>
<path d="M21.2959 36.1111H34.7058V44.8571H21.2959V36.1111Z" fill="#C9BFC8"/>
<path d="M34.7058 36.1111H21.2959V44.8571H27.1985V44.5633C27.1985 43.7156 27.8857 43.0284 28.7334 43.0284H34.7058V36.1111Z" fill="#BAAFB9"/>
<path d="M45.8511 39.5073L47.3434 37.9382V17.3096C47.3434 15.5769 45.9387 14.1722 44.206 14.1722H11.7956C10.0629 14.1722 8.6582 15.5769 8.6582 17.3096V37.9382L11.3815 39.5073H45.8511Z" fill="#99E6FC"/>
<path d="M21.671 37.9382V17.3096C21.671 15.5769 23.0757 14.1722 24.8083 14.1722H11.7956C10.0629 14.1722 8.6582 15.5769 8.6582 17.3096V37.9382L11.3815 39.5073H22.0916C21.8155 39.0305 21.6703 38.4892 21.671 37.9382Z" fill="#62DBFB"/>
<path d="M8.6582 37.9382H47.3434C47.3434 39.6717 45.9387 41.0764 44.206 41.0764H11.7956C10.0629 41.0764 8.6582 39.6717 8.6582 37.9382Z" fill="#EFEDEF"/>
<path d="M21.671 37.9382H8.6582C8.6582 39.6717 10.0629 41.0764 11.7956 41.0764H24.8081C23.0755 41.0762 21.671 39.6716 21.671 37.9382Z" fill="#E5E1E5"/>
<path d="M37.4849 25.7719H35.4346C35.2947 25.7719 35.1606 25.7163 35.0617 25.6174C34.9628 25.5185 34.9072 25.3844 34.9072 25.2445V18.3503C34.9072 18.2104 34.9628 18.0763 35.0617 17.9774C35.1606 17.8785 35.2947 17.8229 35.4346 17.8229H37.4849C37.6248 17.8229 37.7589 17.8785 37.8578 17.9774C37.9567 18.0763 38.0123 18.2104 38.0123 18.3503V25.2445C38.0123 25.3844 37.9567 25.5185 37.8578 25.6174C37.7589 25.7163 37.6248 25.7719 37.4849 25.7719Z" fill="#EB5569"/>
<path d="M30.5786 23.2761H28.5283C28.4591 23.2761 28.3905 23.2624 28.3265 23.2359C28.2625 23.2094 28.2044 23.1706 28.1554 23.1216C28.1065 23.0727 28.0676 23.0145 28.0411 22.9505C28.0146 22.8866 28.001 22.818 28.001 22.7487V12.0285C28.001 11.9592 28.0146 11.8906 28.0411 11.8267C28.0676 11.7627 28.1065 11.7045 28.1554 11.6556C28.2044 11.6066 28.2625 11.5677 28.3265 11.5412C28.3905 11.5147 28.4591 11.5011 28.5283 11.5011H30.5786C30.7185 11.5011 30.8526 11.5567 30.9515 11.6556C31.0504 11.7545 31.106 11.8886 31.106 12.0285V22.7487C31.106 22.8886 31.0504 23.0227 30.9515 23.1216C30.8526 23.2205 30.7185 23.2761 30.5786 23.2761Z" fill="#6CF5C2"/>
<path d="M23.6724 24.4349H21.6221C21.4822 24.4349 21.3481 24.3793 21.2492 24.2804C21.1503 24.1815 21.0947 24.0474 21.0947 23.9075V17.0133C21.0947 16.8735 21.1503 16.7393 21.2492 16.6404C21.3481 16.5415 21.4822 16.486 21.6221 16.486H23.6724C23.8123 16.486 23.9464 16.5415 24.0453 16.6404C24.1442 16.7393 24.1998 16.8735 24.1998 17.0133V23.9075C24.1998 23.9768 24.1861 24.0454 24.1596 24.1094C24.1331 24.1734 24.0943 24.2315 24.0453 24.2805C23.9963 24.3294 23.9382 24.3683 23.8742 24.3948C23.8102 24.4213 23.7416 24.4349 23.6724 24.4349Z" fill="#EB5569"/>
<path d="M16.7652 27.624H14.7149C14.575 27.624 14.4409 27.5684 14.342 27.4695C14.2431 27.3706 14.1875 27.2365 14.1875 27.0966V20.2024C14.1875 20.0626 14.2431 19.9284 14.342 19.8295C14.4409 19.7306 14.575 19.675 14.7149 19.675H16.7652C16.905 19.675 17.0392 19.7306 17.1381 19.8295C17.237 19.9284 17.2925 20.0626 17.2925 20.2024V27.0966C17.2925 27.1659 17.2789 27.2345 17.2524 27.2985C17.2259 27.3624 17.1871 27.4206 17.1381 27.4696C17.0891 27.5185 17.031 27.5574 16.967 27.5839C16.903 27.6104 16.8344 27.624 16.7652 27.624Z" fill="#6CF5C2"/>
<path d="M44.2058 13.5862H37.0452V11.2358C37.0452 10.9124 36.7831 10.6502 36.4596 10.6502C36.1361 10.6502 35.874 10.9124 35.874 11.2358V13.5862H33.4482C33.1247 13.5862 32.8626 13.8484 32.8626 14.1718C32.8626 14.4952 33.1247 14.7574 33.4482 14.7574H35.874V17.2372H35.4345C34.8207 17.2372 34.3214 17.7365 34.3214 18.3502V25.2444C34.3214 25.8581 34.8207 26.3574 35.4345 26.3574H35.874V31.0033C35.874 31.3268 36.1361 31.589 36.4596 31.589C36.7831 31.589 37.0452 31.3268 37.0452 31.0033V26.3574H37.4848C38.0984 26.3574 38.5977 25.858 38.5977 25.2444V18.3502C38.5977 17.7364 38.0984 17.2372 37.4848 17.2372H37.0452V14.7574H44.2058C45.6129 14.7574 46.7578 15.9023 46.7578 17.3095V37.3528H9.2435V17.3095C9.2435 15.9023 10.3883 14.7575 11.7955 14.7575H22.0612V15.9004H21.6217C21.008 15.9004 20.5087 16.3997 20.5087 17.0134V23.9076C20.5087 24.5213 21.008 25.0206 21.6217 25.0206H22.0612V30.1953C22.0612 30.3507 22.1229 30.4996 22.2327 30.6094C22.3426 30.7193 22.4915 30.781 22.6468 30.781C22.8021 30.781 22.9511 30.7193 23.0609 30.6094C23.1707 30.4996 23.2324 30.3507 23.2324 30.1953V25.0206H23.672C24.2857 25.0206 24.785 24.5212 24.785 23.9076V17.0134C24.785 16.3997 24.2856 15.9004 23.672 15.9004H23.2324V14.7574H25.6582C25.8135 14.7574 25.9625 14.6957 26.0723 14.5859C26.1821 14.4761 26.2438 14.3271 26.2438 14.1718C26.2438 14.0165 26.1821 13.8675 26.0723 13.7577C25.9625 13.6479 25.8135 13.5862 25.6582 13.5862H23.2324V13.297C23.2324 13.1417 23.1707 12.9927 23.0609 12.8829C22.9511 12.773 22.8021 12.7114 22.6468 12.7114C22.4915 12.7114 22.3426 12.773 22.2327 12.8829C22.1229 12.9927 22.0612 13.1417 22.0612 13.297V13.5862H11.7955C9.74253 13.5862 8.07227 15.2564 8.07227 17.3095V37.9385C8.07227 39.9915 9.74253 41.6617 11.7955 41.6617H20.7101V44.6393L18.8227 46.8288H18.0735C17.9181 46.8288 17.7692 46.8905 17.6594 47.0003C17.5495 47.1101 17.4878 47.2591 17.4878 47.4144C17.4878 47.5697 17.5495 47.7187 17.6594 47.8285C17.7692 47.9383 17.9181 48 18.0735 48H37.8738C38.1973 48 38.4595 47.7378 38.4595 47.4144C38.4595 47.091 38.1973 46.8288 37.8738 46.8288H37.1786L35.2911 44.6393V41.6617H44.2058C46.2588 41.6617 47.9291 39.9915 47.9291 37.9385V17.3095C47.9291 15.2565 46.2588 13.5862 44.2058 13.5862ZM37.4265 25.1863H35.4927V18.4085H37.4266V25.1863H37.4265ZM23.6137 23.8493H21.6799V17.0716H23.6137V23.8493ZM44.2058 40.4905H32.3536C32.0301 40.4905 31.7679 40.7527 31.7679 41.0761C31.7679 41.3995 32.0301 41.6617 32.3536 41.6617H34.1199V44.2713H32.6611C32.3376 44.2713 32.0755 44.5335 32.0755 44.857C32.0755 45.1804 32.3376 45.4426 32.6611 45.4426H34.4371L35.6322 46.8288H20.3691L21.5641 45.4426H23.3401C23.4954 45.4426 23.6444 45.3809 23.7542 45.2711C23.864 45.1612 23.9257 45.0123 23.9257 44.857C23.9257 44.7016 23.864 44.5527 23.7542 44.4429C23.6444 44.333 23.4954 44.2713 23.3401 44.2713H21.8814V41.6617H29.8578C30.1813 41.6617 30.4434 41.3995 30.4434 41.0761C30.4434 40.7527 30.1813 40.4905 29.8578 40.4905H11.7955C10.5899 40.4905 9.57754 39.6499 9.31206 38.5241H46.6892C46.4238 39.6499 45.4115 40.4905 44.2058 40.4905Z" fill="black"/>
<path d="M14.1874 25.0972C14.0321 25.0972 13.8832 25.1589 13.7733 25.2687C13.6635 25.3785 13.6018 25.5275 13.6018 25.6828V27.0965C13.6018 27.7103 14.1011 28.2095 14.7148 28.2095H15.1543V31.3282C15.1543 31.4835 15.216 31.6325 15.3258 31.7423C15.4357 31.8521 15.5846 31.9138 15.7399 31.9138C15.8953 31.9138 16.0442 31.8521 16.154 31.7423C16.2639 31.6325 16.3256 31.4835 16.3256 31.3282V28.2095H16.7651C17.3788 28.2095 17.8781 27.7103 17.8781 27.0965V20.2023C17.8781 19.5886 17.3787 19.0893 16.7651 19.0893H16.3256V18.1526C16.3256 17.9973 16.2639 17.8483 16.154 17.7385C16.0442 17.6287 15.8953 17.567 15.7399 17.567C15.5846 17.567 15.4357 17.6287 15.3258 17.7385C15.216 17.8483 15.1543 17.9973 15.1543 18.1526V19.0893H14.7148C14.1011 19.0893 13.6018 19.5886 13.6018 20.2023V23.1871C13.6018 23.3424 13.6635 23.4914 13.7733 23.6012C13.8832 23.711 14.0321 23.7727 14.1874 23.7727C14.3427 23.7727 14.4917 23.711 14.6015 23.6012C14.7113 23.4914 14.773 23.3424 14.773 23.1871V20.2606H16.707V27.0384H14.773V25.6829C14.7731 25.606 14.7579 25.5298 14.7285 25.4587C14.6991 25.3877 14.6559 25.3231 14.6015 25.2687C14.5472 25.2143 14.4826 25.1712 14.4115 25.1418C14.3405 25.1123 14.2643 25.0972 14.1874 25.0972ZM28.5276 23.8617H28.9672V26.9804C28.9672 27.3038 29.2293 27.566 29.5528 27.566C29.8763 27.566 30.1384 27.3038 30.1384 26.9804V23.8617H30.5779C31.1916 23.8617 31.6909 23.3624 31.6909 22.7487V18.1553C31.6909 17.8319 31.4288 17.5697 31.1053 17.5697C30.7818 17.5697 30.5197 17.8319 30.5197 18.1553V22.6905H28.5858V12.0867H30.5197V15.6597C30.5197 15.9831 30.7818 16.2453 31.1053 16.2453C31.4288 16.2453 31.6909 15.9831 31.6909 15.6597V12.0284C31.6909 11.4148 31.1916 10.9154 30.5779 10.9154H30.1384V8.58562C30.1384 8.2622 29.8763 8 29.5528 8C29.2293 8 28.9672 8.2622 28.9672 8.58562V10.9154H28.5276C27.9139 10.9154 27.4146 11.4148 27.4146 12.0284V22.7487C27.4146 23.3625 27.9139 23.8617 28.5276 23.8617ZM39.8388 24.0551C39.8752 24.1228 39.9247 24.1826 39.9843 24.2312C40.044 24.2798 40.1126 24.3162 40.1862 24.3382C40.2599 24.3603 40.3372 24.3676 40.4137 24.3598C40.4902 24.352 40.5645 24.3291 40.6322 24.2926L43.3297 22.8382L43.1356 23.3474C43.1083 23.4193 43.0953 23.4958 43.0975 23.5727C43.0997 23.6496 43.117 23.7253 43.1485 23.7955C43.18 23.8656 43.2249 23.9289 43.2809 23.9817C43.3368 24.0345 43.4026 24.0758 43.4744 24.1032C43.5463 24.1306 43.6229 24.1435 43.6997 24.1413C43.7766 24.1391 43.8523 24.1218 43.9225 24.0903C43.9927 24.0588 44.056 24.0139 44.1088 23.9579C44.1616 23.902 44.2028 23.8362 44.2302 23.7644L44.8895 22.0336C44.9169 21.9617 44.9299 21.8852 44.9277 21.8083C44.9254 21.7314 44.9081 21.6557 44.8767 21.5856C44.8452 21.5154 44.8002 21.4521 44.7443 21.3993C44.6884 21.3465 44.6226 21.3052 44.5507 21.2778L42.7137 20.578C42.5691 20.5251 42.4094 20.5313 42.2694 20.5952C42.1293 20.6591 42.02 20.7757 41.9652 20.9196C41.9104 21.0634 41.9144 21.2231 41.9765 21.3641C42.0385 21.505 42.1536 21.6158 42.2967 21.6725L42.7227 21.8348L40.0763 23.2617C39.9396 23.3354 39.8378 23.4604 39.7932 23.6092C39.7487 23.758 39.765 23.9184 39.8388 24.0551ZM11.5345 35.4975C11.5796 35.603 11.6547 35.6929 11.7505 35.7561C11.8462 35.8192 11.9584 35.8529 12.0731 35.8529C12.1523 35.8528 12.2306 35.8367 12.3033 35.8055L19.86 32.5714L20.5467 34.3706C20.5764 34.4485 20.6224 34.5191 20.6815 34.5777C20.7407 34.6363 20.8117 34.6817 20.8898 34.7107C20.9679 34.7397 21.0513 34.7518 21.1344 34.746C21.2175 34.7402 21.2984 34.7168 21.3717 34.6773L33.8558 27.9462C33.9237 27.9097 33.9836 27.8603 34.0323 27.8007C34.081 27.741 34.1175 27.6724 34.1397 27.5987C34.1618 27.5249 34.1692 27.4476 34.1614 27.371C34.1536 27.2944 34.1308 27.2201 34.0942 27.1523C34.0577 27.0845 34.0082 27.0246 33.9485 26.976C33.8887 26.9274 33.82 26.8911 33.7463 26.8691C33.6725 26.8471 33.5951 26.8398 33.5185 26.8477C33.4419 26.8556 33.3677 26.8786 33.3 26.9152L21.403 33.3297L20.7369 31.5843C20.7088 31.5106 20.6661 31.4434 20.6113 31.3866C20.5566 31.3298 20.4909 31.2847 20.4183 31.2539C20.3457 31.2231 20.2676 31.2073 20.1888 31.2075C20.1099 31.2076 20.0319 31.2237 19.9594 31.2547L11.8425 34.7286C11.6997 34.7898 11.5871 34.9051 11.5293 35.0493C11.4716 35.1935 11.4734 35.3547 11.5345 35.4975Z" fill="black"/>
</g>
<defs>
<clipPath id="clip0_596_5172">
<rect width="40" height="40" fill="white" transform="translate(8 8)"/>
</clipPath>
</defs>
</svg>

<svg width="56" height="56" fill="none" xmlns="http://www.w3.org/2000/svg"><g clip-path="url(#clip0_596_5172)"><path d="M34.706 44.857l-1.138-1.326H22.496l-1.2 1.326-2.205 2.557h17.82l-2.205-2.557z" fill="#EFEDEF"/><path d="M28.414 43.531h-5.918l-1.2 1.326-2.205 2.557h5.918l2.206-2.557 1.2-1.326z" fill="#E5E1E5"/><path d="M21.296 36.111h13.41v8.746h-13.41v-8.746z" fill="#C9BFC8"/><path d="M34.706 36.111h-13.41v8.746h5.902v-.294c0-.847.688-1.535 1.535-1.535h5.973v-6.917z" fill="#BAAFB9"/><path d="M45.851 39.507l1.492-1.569V17.31a3.137 3.137 0 0 0-3.137-3.138h-32.41a3.137 3.137 0 0 0-3.138 3.138v20.628l2.724 1.57h34.47z" fill="#99E6FC"/><path d="M21.671 37.938V17.31a3.137 3.137 0 0 1 3.137-3.138H11.796a3.137 3.137 0 0 0-3.138 3.138v20.628l2.724 1.57h10.71a3.123 3.123 0 0 1-.421-1.57z" fill="#62DBFB"/><path d="M8.658 37.938h38.685a3.138 3.138 0 0 1-3.137 3.138h-32.41a3.138 3.138 0 0 1-3.138-3.138z" fill="#EFEDEF"/><path d="M21.671 37.938H8.658a3.138 3.138 0 0 0 3.138 3.138h13.012a3.138 3.138 0 0 1-3.137-3.138z" fill="#E5E1E5"/><path d="M37.485 25.772h-2.05a.527.527 0 0 1-.528-.527V18.35a.527.527 0 0 1 .528-.527h2.05a.527.527 0 0 1 .527.527v6.894a.527.527 0 0 1-.527.528z" fill="#EB5569"/><path d="M30.579 23.276h-2.05A.528.528 0 0 1 28 22.75v-10.72a.527.527 0 0 1 .527-.528h2.05a.527.527 0 0 1 .528.527v10.72a.527.527 0 0 1-.527.528z" fill="#6CF5C2"/><path d="M23.672 24.435h-2.05a.527.527 0 0 1-.527-.527v-6.895a.528.528 0 0 1 .527-.527h2.05a.527.527 0 0 1 .528.527v6.894a.528.528 0 0 1-.528.528z" fill="#EB5569"/><path d="M16.765 27.624h-2.05a.527.527 0 0 1-.527-.527v-6.895a.528.528 0 0 1 .527-.527h2.05a.528.528 0 0 1 .527.527v6.895a.528.528 0 0 1-.527.527z" fill="#6CF5C2"/><path d="M44.206 13.586h-7.16v-2.35a.586.586 0 1 0-1.172 0v2.35h-2.426a.586.586 0 1 0 0 1.171h2.426v2.48h-.44c-.613 0-1.113.5-1.113 1.113v6.894c0 .614.5 1.113 1.114 1.113h.439v4.646a.586.586 0 1 0 1.171 0v-4.646h.44c.613 0 1.113-.499 1.113-1.113V18.35c0-.614-.5-1.113-1.113-1.113h-.44v-2.48h7.16a2.555 2.555 0 0 1 2.553 2.553v20.043H9.243V17.309a2.555 2.555 0 0 1 2.553-2.552H22.06V15.9h-.44c-.613 0-1.112.5-1.112 1.113v6.895c0 .613.499 1.113 1.113 1.113h.44v5.174a.586.586 0 1 0 1.17 0v-5.174h.44c.614 0 1.113-.5 1.113-1.113v-6.895c0-.613-.5-1.113-1.113-1.113h-.44v-1.143h2.426a.586.586 0 0 0 0-1.17h-2.426v-.29a.586.586 0 0 0-1.17 0v.29H11.794a3.727 3.727 0 0 0-3.723 3.723v20.628a3.727 3.727 0 0 0 3.724 3.724h8.914v2.977l-1.887 2.19h-.75a.586.586 0 1 0 0 1.171h19.8a.586.586 0 1 0 0-1.171h-.694l-1.888-2.19v-2.977h8.915a3.727 3.727 0 0 0 3.723-3.724V17.31a3.728 3.728 0 0 0-3.723-3.723zm-6.78 11.6h-1.933V18.41h1.934v6.777zM23.614 23.85H21.68v-6.777h1.934v6.777zM44.206 40.49H32.354a.586.586 0 1 0 0 1.172h1.766v2.61H32.66a.586.586 0 1 0 0 1.17h1.776l1.195 1.387H20.37l1.195-1.386h1.776a.586.586 0 0 0 0-1.172h-1.459v-2.61h7.977a.586.586 0 1 0 0-1.17H11.795a2.556 2.556 0 0 1-2.483-1.967H46.69a2.556 2.556 0 0 1-2.483 1.966z" fill="#000"/><path d="M14.187 25.097a.586.586 0 0 0-.585.586v1.413c0 .614.5 1.113 1.113 1.113h.44v3.12a.586.586 0 0 0 1.17 0v-3.12h.44c.614 0 1.113-.499 1.113-1.113v-6.894c0-.613-.5-1.113-1.113-1.113h-.44v-.936a.585.585 0 1 0-1.17 0v.936h-.44c-.614 0-1.113.5-1.113 1.113v2.985a.586.586 0 0 0 1.171 0v-2.926h1.934v6.777h-1.934v-1.355a.585.585 0 0 0-.586-.586zm14.34-1.235h.44v3.118a.586.586 0 1 0 1.171 0v-3.118h.44c.614 0 1.113-.5 1.113-1.113v-4.594a.586.586 0 1 0-1.171 0v4.535h-1.934V12.088h1.934v3.573a.586.586 0 1 0 1.17 0v-3.632c0-.613-.498-1.113-1.112-1.113h-.44v-2.33a.586.586 0 1 0-1.17 0v2.33h-.44c-.614 0-1.113.5-1.113 1.113v10.72c0 .614.499 1.114 1.113 1.114zm11.312.193a.584.584 0 0 0 .793.238l2.698-1.455-.194.51a.587.587 0 0 0 .786.742.585.585 0 0 0 .308-.326l.66-1.73a.585.585 0 0 0-.34-.756l-1.836-.7a.586.586 0 0 0-.417 1.095l.426.162-2.647 1.427a.586.586 0 0 0-.237.793zM11.535 35.498a.586.586 0 0 0 .768.308l7.557-3.235.687 1.8a.585.585 0 0 0 .825.306l12.484-6.73a.586.586 0 1 0-.556-1.032L21.403 33.33l-.666-1.746a.585.585 0 0 0-.778-.33l-8.117 3.475a.586.586 0 0 0-.308.769z" fill="#000"/></g><defs><clipPath id="clip0_596_5172"><path fill="#fff" transform="translate(8 8)" d="M0 0h40v40H0z"/></clipPath></defs></svg>
